X: 88
T: Harlequin_in_the_Woods
%R: reel
B: Chas & Sam Thompson "Twenty Four Country Dances for the Year 1776", London 1776, p.44 #2
F: http://www.vwml.org/browse/browse-collections-dance-tune-books/browse-thompsons1776#
Z: 2014 John Chambers <jc:trillian.mit.edu> (added dance description)
N: The strains are actually only 4 bars, with only the last note's rhythm different.
M: C|
L: 1/8
K: D
% - - - - - - - - - - - - - - - - - - - - - - - - - - - - -
|:\
D2(DF) A,2A,2 | D2(DF) A2A2 | D2(DF) (GF)(ED) | (CD)(EC) D2D2 |
D2(DF) A,2A,2 | D2(DF) A2A2 | D2(DF) (GF)(ED) | (CD)(EC) D4 :|
|:\
(DF)(Ad) A2(Ad) | ({d}cB)(cd) e2(ef) | g2(ge) (fa)(fd) | (eg)(ec) d2d2 |
(DF)(Ad) A2(Ad) | ({d}cB)(cd) e2(ef) | g2(ge) (fa)(fd) | (eg)(ec) d4 :|
% - - - - - - - - - - Dance description - - - - - - - - - -
%%begintext align
%% Cast off 2 Cu. & up again .| hands across four &
%% back again :| the 1st & 2d Cu. foot & change sides,
%% the same back again .|| lead down 2 Cu. up again &
%% cast off :||
%%endtext

%%sep 1 1 500
%%sep 1 1 500
